src/images/single-assets/BETS.svg

<svg
  width="556"
  height="556"
  viewBox="0 0 556 556"
  fill="none"
  xmlns="http://www.w3.org/2000/svg"
>
  <path
    d="M243.723 259.064C243.723 260.321 243.599 258.013 243.723 259.064V259.064Z"
    fill="url(#paint0_linear)"
  />
  <path
    d="M29.0996 373.231C29.0599 373.13 29.0118 373.034 28.9555 372.942C27.5953 370.569 26.3175 368.218 25.1016 365.783C27.1625 370.116 29.2234 374.365 31.5522 378.574C30.7073 376.8 29.9446 375.067 29.0996 373.231ZM238.88 267.792C238.87 267.977 238.87 268.163 238.88 268.349C238.88 268.617 238.88 268.885 238.88 269.174C238.88 269.463 238.88 270.102 238.88 270.577C239.128 269.958 239.375 269.339 239.664 268.741C239.952 268.142 239.664 267.028 239.664 266.203C239.375 266.718 239.113 267.249 238.88 267.792Z"
    fill="url(#paint1_linear)"
  />
  <path
    d="M239.724 266.264C239.724 267.089 239.724 267.935 239.724 268.801C239.436 269.399 239.189 270.018 238.941 270.637C238.941 270.163 238.941 269.709 238.941 269.234C238.941 268.76 238.941 268.677 238.941 268.409C238.931 268.224 238.931 268.038 238.941 267.852C239.174 267.309 239.436 266.779 239.724 266.264Z"
    fill="url(#paint2_linear)"
  />
  <path
    d="M285.499 89.983C185.03 89.983 110.321 171.058 118.812 271.072C124.439 337.747 183.092 391.797 249.845 391.797C316.598 391.797 366.308 337.747 360.887 271.072C358.167 237.734 328.861 210.709 295.392 210.709C263.344 210.709 240.139 230.369 239.747 266.265C239.747 267.09 239.747 267.936 239.747 268.802L240.283 267.73L240.86 266.698C241.025 266.368 241.231 266.079 241.416 265.77C242.04 264.777 242.729 263.826 243.477 262.923L244.24 262.056L245.023 261.231L245.847 260.427C246.383 259.931 246.939 259.436 247.516 258.983C249.347 257.549 251.323 256.312 253.411 255.29L254.462 254.795L255.533 254.341L256.42 253.99C257.574 253.55 258.75 253.171 259.944 252.855C260.316 252.74 260.695 252.643 261.077 252.567L261.799 252.402C262.096 252.318 262.399 252.256 262.705 252.216C264.427 251.882 266.169 251.661 267.92 251.556H269.033C282.696 251.102 296.546 257.477 301.1 270.741C311.405 300.944 283.624 332.92 244.034 332.796C209.719 332.693 179.568 305.008 176.703 270.741C170.974 202.209 222.044 146.653 290.919 146.653C359.795 146.653 419.994 202.209 425.518 270.741C433.761 373.54 357.157 456.884 254.318 456.884C151.478 456.884 61.0242 373.54 52.3478 270.741C40.7036 133.677 143.028 22.5855 280.78 22.5855C383.022 22.5855 475.742 83.7322 521.206 171.285C498.167 112.681 455.403 63.9724 400.303 33.5717C345.204 3.17102 281.227 -7.01221 219.425 4.78094C157.622 16.5741 101.875 49.603 61.8118 98.1626C21.7489 146.722 -0.113736 207.763 0.000444989 270.741C0.000444989 279.516 0.412578 288.181 1.23694 296.735C5.83677 320.716 13.8313 343.918 24.9787 365.639C25.0281 365.717 25.0697 365.8 25.1025 365.886C26.3185 368.32 27.5962 370.672 28.9564 373.045C29.0127 373.137 29.0609 373.233 29.1006 373.333C74.585 455.605 163.06 512.626 259.779 512.626C393.079 512.626 492.498 404.505 481.843 271.257C473.846 171.058 385.928 89.983 285.499 89.983ZM243.786 259.148C243.786 260.323 243.663 258.013 243.786 259.148V259.148Z"
    fill="white"
  />
  <path
    d="M31.5522 378.574C29.2852 374.448 27.1419 370.115 25.1016 365.783C26.3175 368.218 27.5953 370.569 28.9555 372.942C29.0118 373.034 29.0599 373.13 29.0996 373.231C29.9446 375.067 30.7073 376.8 31.5522 378.574Z"
    fill="url(#paint3_linear)"
  />
  <path
    d="M239.724 266.264C239.724 267.089 239.724 267.935 239.724 268.801C239.436 269.399 239.189 270.018 238.941 270.637C238.941 270.163 238.941 269.709 238.941 269.234C238.941 268.76 238.941 268.677 238.941 268.409C238.931 268.224 238.931 268.038 238.941 267.852C239.174 267.309 239.436 266.779 239.724 266.264Z"
    fill="url(#paint4_linear)"
  />
  <path
    d="M238.882 267.792C238.872 267.977 238.872 268.163 238.882 268.349C238.872 268.163 238.872 267.977 238.882 267.792V266.533C238.862 267.008 238.882 267.441 238.882 267.792Z"
    fill="url(#paint5_linear)"
  />
  <path
    d="M258.996 220.074C257.616 221.168 256.276 222.323 254.998 223.54C256.263 222.309 257.598 221.152 258.996 220.074Z"
    fill="url(#paint6_linear)"
  />
  <path
    d="M521.207 171.182C475.743 83.6292 383.125 22.4824 280.78 22.4824C142.987 22.4824 40.7042 133.574 52.3484 270.638C61.0661 373.437 151.52 456.781 254.318 456.781C357.117 456.781 433.803 373.437 425.518 270.638C419.995 202.106 359.734 146.55 290.92 146.55C222.106 146.55 170.975 202.106 176.704 270.638C179.569 304.905 209.679 332.528 244.034 332.693C283.624 332.817 311.447 300.841 301.101 270.638C296.546 257.374 282.697 250.999 269.033 251.453H267.92C266.17 251.558 264.428 251.779 262.706 252.113C262.4 252.153 262.097 252.215 261.799 252.299L261.078 252.464L259.944 252.752C258.751 253.068 257.574 253.447 256.42 253.887L255.534 254.238L254.462 254.692L253.411 255.187C251.323 256.209 249.348 257.446 247.517 258.879C246.961 259.354 246.384 259.828 245.848 260.324L245.023 261.128L244.24 261.953L243.478 262.82C242.729 263.723 242.041 264.674 241.417 265.667L240.86 266.595L240.283 267.627L239.748 268.699C239.459 269.298 239.212 269.916 238.964 270.535C238.964 270.061 238.964 269.607 238.964 269.132C238.964 268.658 238.964 268.575 238.964 268.307C238.954 268.122 238.954 267.936 238.964 267.75V266.492C238.964 266.904 238.964 267.338 238.964 267.75C239.218 267.206 239.499 266.676 239.809 266.162C240.16 230.266 263.366 210.606 295.454 210.606C328.923 210.606 358.23 237.631 360.95 270.969C366.37 337.644 316.64 391.694 249.908 391.694C183.175 391.694 124.501 337.644 118.875 270.969C110.466 170.955 185.092 89.8801 285.562 89.8801C386.031 89.8801 473.971 170.955 481.967 270.969C492.622 404.299 393.203 512.337 259.903 512.337C163.04 512.337 74.7094 455.317 29.225 373.045C30.0287 374.84 30.8323 376.614 31.6773 378.388C29.4103 374.262 27.267 369.93 25.2266 365.597C25.1938 365.511 25.1525 365.428 25.1031 365.35C13.9557 343.629 5.96115 320.428 1.36133 296.446C5.17266 334.878 17.1686 372.046 36.5411 405.445C55.9135 438.844 82.2124 467.699 113.666 490.066C145.119 512.433 180.996 527.791 218.879 535.107C256.763 542.423 295.773 541.526 333.281 532.477C370.788 523.427 405.923 506.436 436.317 482.647C466.711 458.858 491.659 428.825 509.479 394.571C527.299 360.316 537.577 322.636 539.621 284.07C541.666 245.503 535.429 206.946 521.331 170.996L521.207 171.182ZM254.998 223.541C256.263 222.309 257.598 221.152 258.996 220.075C257.616 221.168 256.276 222.406 254.998 223.541Z"
    fill="url(#paint7_linear)"
  />
  <path
    d="M31.5522 378.574C29.2852 374.448 27.1419 370.115 25.1016 365.783C26.3175 368.218 27.5953 370.569 28.9555 372.942C29.0118 373.034 29.0599 373.13 29.0996 373.231C29.9446 375.067 30.7073 376.8 31.5522 378.574Z"
    fill="#FF8080"
  />
  <path
    d="M243.723 259.064C243.723 260.321 243.599 258.013 243.723 259.064V259.064Z"
    fill="#FF8080"
  />
  <defs>
    <linearGradient
      id="paint0_linear"
      x1="243.476"
      y1="258.879"
      x2="243.888"
      y2="259.373"
      gradientUnits="userSpaceOnUse"
    >
      <stop stop-color="#C90202" />
      <stop offset="0.37" stop-color="#C90202" />
      <stop offset="1" stop-color="#820202" />
    </linearGradient>
    <linearGradient
      id="paint1_linear"
      x1="354743"
      y1="56199.8"
      x2="356623"
      y2="60524.5"
      gradientUnits="userSpaceOnUse"
    >
      <stop stop-color="#C90202" />
      <stop offset="0.37" stop-color="#C90202" />
      <stop offset="1" stop-color="#820202" />
    </linearGradient>
    <linearGradient
      id="paint2_linear"
      x1="238.282"
      y1="267.171"
      x2="240.366"
      y2="269.686"
      gradientUnits="userSpaceOnUse"
    >
      <stop stop-color="#B50202" />
      <stop offset="0.98" stop-color="#780202" />
    </linearGradient>
    <linearGradient
      id="paint3_linear"
      x1="10415.3"
      y1="7203.61"
      x2="10472.4"
      y2="7238.27"
      gradientUnits="userSpaceOnUse"
    >
      <stop stop-color="#B50202" />
      <stop offset="0.98" stop-color="#780202" />
    </linearGradient>
    <linearGradient
      id="paint4_linear"
      x1="238.282"
      y1="267.171"
      x2="240.366"
      y2="269.686"
      gradientUnits="userSpaceOnUse"
    >
      <stop stop-color="#B50202" />
      <stop offset="0.98" stop-color="#780202" />
    </linearGradient>
    <linearGradient
      id="paint5_linear"
      x1="238.367"
      y1="266.946"
      x2="239.461"
      y2="268.141"
      gradientUnits="userSpaceOnUse"
    >
      <stop stop-color="#F4EDEF" />
      <stop offset="0.25" stop-color="#F1EAEC" />
      <stop offset="0.47" stop-color="#E6E1E3" />
      <stop offset="0.67" stop-color="#D4D1D3" />
      <stop offset="0.87" stop-color="#BCBBBE" />
      <stop offset="1" stop-color="#A6A8AB" />
    </linearGradient>
    <linearGradient
      id="paint6_linear"
      x1="7148.66"
      y1="1830.52"
      x2="7148.87"
      y2="1830.79"
      gradientUnits="userSpaceOnUse"
    >
      <stop stop-color="#F4EDEF" />
      <stop offset="0.25" stop-color="#F1EAEC" />
      <stop offset="0.47" stop-color="#E6E1E3" />
      <stop offset="0.67" stop-color="#D4D1D3" />
      <stop offset="0.87" stop-color="#BCBBBE" />
      <stop offset="1" stop-color="#A6A8AB" />
    </linearGradient>
    <linearGradient
      id="paint7_linear"
      x1="1.36133"
      y1="22.4824"
      x2="538.821"
      y2="28.7751"
      gradientUnits="userSpaceOnUse"
    >
      <stop stop-color="#6458ED" />
      <stop offset="0.489583" stop-color="#4E5CF4" />
      <stop offset="1" stop-color="#018EDD" />
    </linearGradient>
  </defs>
</svg>

<svg xmlns="http://www.w3.org/2000/svg" width="556" height="556" fill="none"><path fill="url(#a)" d="M243.723 259.064c0 1.257-.124-1.051 0 0"/><path fill="url(#b)" d="M29.1 373.231a2 2 0 0 0-.145-.289 141 141 0 0 1-3.853-7.159c2.06 4.333 4.121 8.582 6.45 12.791-.845-1.774-1.607-3.507-2.452-5.343m209.78-105.439q-.015.278 0 .557v2.228c.248-.619.495-1.238.784-1.836.288-.599 0-1.713 0-2.538a17 17 0 0 0-.784 1.589"/><path fill="url(#c)" d="M239.724 266.264v2.537c-.288.598-.535 1.217-.783 1.836v-2.228a5 5 0 0 1 0-.557q.35-.815.783-1.588"/><path fill="#fff" d="M285.499 89.983c-100.469 0-175.178 81.075-166.687 181.089 5.627 66.675 64.28 120.725 131.033 120.725s116.463-54.05 111.042-120.725c-2.72-33.338-32.026-60.363-65.495-60.363-32.048 0-55.253 19.66-55.645 55.556v2.537l.536-1.072.577-1.032c.165-.33.371-.619.556-.928a27 27 0 0 1 2.061-2.847l.763-.867.783-.825.824-.804a27 27 0 0 1 1.669-1.444 33.3 33.3 0 0 1 5.895-3.693l1.051-.495 1.071-.454.887-.351q1.732-.66 3.524-1.135.559-.173 1.133-.288l.722-.165q.446-.126.906-.186a40 40 0 0 1 5.215-.66h1.113c13.663-.454 27.513 5.921 32.067 19.185 10.305 30.203-17.476 62.179-57.066 62.055-34.315-.103-64.466-27.788-67.331-62.055-5.729-68.532 45.341-124.088 114.216-124.088 68.876 0 129.075 55.556 134.599 124.088 8.243 102.799-68.361 186.143-171.2 186.143-102.84 0-193.294-83.344-201.97-186.143C40.704 133.677 143.028 22.586 280.78 22.586c102.242 0 194.962 61.146 240.426 148.699A270.16 270.16 0 0 0 400.303 33.572 269.74 269.74 0 0 0 219.425 4.78 269.93 269.93 0 0 0 61.812 98.163 270.42 270.42 0 0 0 0 270.74q0 13.163 1.237 25.994a257 257 0 0 0 23.742 68.904q.074.117.123.247a141 141 0 0 0 3.854 7.159q.085.138.145.288c45.484 82.272 133.959 139.293 230.678 139.293 133.3 0 232.719-108.121 222.064-241.369-7.997-100.199-95.915-181.274-196.344-181.274m-41.713 169.165c0 1.175-.123-1.135 0 0"/><path fill="url(#d)" d="M31.552 378.574c-2.267-4.126-4.41-8.459-6.45-12.791a141 141 0 0 0 3.854 7.159q.084.138.144.289c.845 1.836 1.607 3.569 2.452 5.343"/><path fill="url(#e)" d="M239.724 266.264v2.537c-.288.598-.535 1.217-.783 1.836v-2.228a5 5 0 0 1 0-.557q.35-.815.783-1.588"/><path fill="url(#f)" d="M238.882 267.792v-1.259c-.02.475 0 .908 0 1.259"/><path fill="url(#g)" d="M258.996 220.074a59 59 0 0 0-3.998 3.466 46 46 0 0 1 3.998-3.466"/><path fill="url(#h)" d="M521.207 171.182c-45.464-87.553-138.082-148.7-240.427-148.7-137.793 0-240.076 111.092-228.432 248.156 8.718 102.799 99.172 186.143 201.97 186.143 102.799 0 179.485-83.344 171.2-186.143-5.523-68.532-65.784-124.088-134.598-124.088s-119.945 55.556-114.216 124.088c2.865 34.267 32.975 61.89 67.33 62.055 39.59.124 67.413-31.852 57.067-62.055-4.555-13.264-18.404-19.639-32.068-19.185h-1.113c-1.75.105-3.492.326-5.214.66a6.4 6.4 0 0 0-.907.186l-.721.165-1.134.288q-1.791.475-3.524 1.135l-.886.351-1.072.454-1.051.495a33.4 33.4 0 0 0-5.894 3.692c-.556.475-1.133.949-1.669 1.445l-.825.804-.783.825-.762.867a27 27 0 0 0-2.061 2.847l-.557.928-.577 1.032-.535 1.072c-.289.599-.536 1.217-.784 1.836v-2.228a5 5 0 0 1 0-.557v-1.258 1.258a17 17 0 0 1 .845-1.588c.351-35.896 23.557-55.556 55.645-55.556 33.469 0 62.776 27.025 65.496 60.363 5.42 66.675-44.31 120.725-111.042 120.725-66.733 0-125.407-54.05-131.033-120.725C110.466 170.955 185.092 89.88 285.562 89.88c100.469 0 188.409 81.075 196.405 181.089 10.655 133.33-88.764 241.368-222.064 241.368-96.863 0-185.194-57.02-230.678-139.292a249 249 0 0 0 2.452 5.343c-2.267-4.126-4.41-8.458-6.45-12.791a1.4 1.4 0 0 0-.124-.247 256.9 256.9 0 0 1-23.742-68.904 270.4 270.4 0 0 0 35.18 108.999 270.16 270.16 0 0 0 77.125 84.621 269.8 269.8 0 0 0 105.213 45.041 269.7 269.7 0 0 0 114.402-2.63 269.9 269.9 0 0 0 103.036-49.83 270.2 270.2 0 0 0 73.162-88.076 270.46 270.46 0 0 0 30.142-110.501 270.5 270.5 0 0 0-18.29-113.074zm-266.209 52.359a46 46 0 0 1 3.998-3.466c-1.38 1.093-2.72 2.331-3.998 3.466"/><path fill="#FF8080" d="M31.552 378.574c-2.267-4.126-4.41-8.459-6.45-12.791a141 141 0 0 0 3.854 7.159q.084.138.144.289c.845 1.836 1.607 3.569 2.452 5.343M243.723 259.064c0 1.257-.124-1.051 0 0"/><defs><linearGradient id="a" x1="243.476" x2="243.888" y1="258.879" y2="259.373" gradientUnits="userSpaceOnUse"><stop stop-color="#C90202"/><stop offset=".37" stop-color="#C90202"/><stop offset="1" stop-color="#820202"/></linearGradient><linearGradient id="b" x1="354743" x2="356623" y1="56199.8" y2="60524.5" gradientUnits="userSpaceOnUse"><stop stop-color="#C90202"/><stop offset=".37" stop-color="#C90202"/><stop offset="1" stop-color="#820202"/></linearGradient><linearGradient id="c" x1="238.282" x2="240.366" y1="267.171" y2="269.686" gradientUnits="userSpaceOnUse"><stop stop-color="#B50202"/><stop offset=".98" stop-color="#780202"/></linearGradient><linearGradient id="d" x1="10415.3" x2="10472.4" y1="7203.61" y2="7238.27" gradientUnits="userSpaceOnUse"><stop stop-color="#B50202"/><stop offset=".98" stop-color="#780202"/></linearGradient><linearGradient id="e" x1="238.282" x2="240.366" y1="267.171" y2="269.686" gradientUnits="userSpaceOnUse"><stop stop-color="#B50202"/><stop offset=".98" stop-color="#780202"/></linearGradient><linearGradient id="f" x1="238.367" x2="239.461" y1="266.946" y2="268.141" gradientUnits="userSpaceOnUse"><stop stop-color="#F4EDEF"/><stop offset=".25" stop-color="#F1EAEC"/><stop offset=".47" stop-color="#E6E1E3"/><stop offset=".67" stop-color="#D4D1D3"/><stop offset=".87" stop-color="#BCBBBE"/><stop offset="1" stop-color="#A6A8AB"/></linearGradient><linearGradient id="g" x1="7148.66" x2="7148.87" y1="1830.52" y2="1830.79" gradientUnits="userSpaceOnUse"><stop stop-color="#F4EDEF"/><stop offset=".25" stop-color="#F1EAEC"/><stop offset=".47" stop-color="#E6E1E3"/><stop offset=".67" stop-color="#D4D1D3"/><stop offset=".87" stop-color="#BCBBBE"/><stop offset="1" stop-color="#A6A8AB"/></linearGradient><linearGradient id="h" x1="1.361" x2="538.821" y1="22.482" y2="28.775" gradientUnits="userSpaceOnUse"><stop stop-color="#6458ED"/><stop offset=".49" stop-color="#4E5CF4"/><stop offset="1" stop-color="#018EDD"/></linearGradient></defs></svg>
